X: 42035
T: Waltz For Deborah
R: waltz
M: 3/4
K: Amixolydian
E^G|:"A" A4 Ac|"Bm" d4 "E" E^G|"A" A3 A^GE|"D" D4 "E"(3EF^G|"A" A2 Bd e2|"Bm" d2 B2 A2|"G" B B2 A Bd|"F#m" c4 A2|
"A" A3A Bd|"Em" e3e ag|"Bm" fd BA Bd|"F#m" c3 cde|"Bm" fdB2 "G/D"GF|"G" G2 A2 B2|"A" A e2"A/E"dcB|1 "A" A4 (3EF^G:|
[2 "A" A2cdef|:"C" g4 e2|"Em" e3 d B2|"G" d6|"Em" e6|"G" B4 Bd|"D" f2 e2 d2|"Em" e6-|"Am" e2 e2 f2|
"C" g4 e2|"D" a3 g f2|"G" b6|"Bm" f4 B2|"Em" ee2e fg|1 "D" fg/f/ e2 d2|"Em" e6-|"Em/B"e4 ef:|2 "D" f2 e2 d2|"Em" edBAGF|E4 +D.C.+ E^G||
3 "Last time" "Bm" f2 d2 B2|"Am" A6-|"Em" HB6||

